flowes_shop/src/assets/image/icons/phone.svg

<svg width="40" height="40" viewBox="0 0 40 40" fill="none" xmlns="http://www.w3.org/2000/svg">
<path d="M19.8352 0C8.87814 0 0 8.87814 0 19.8352C0 30.7922 8.87814 39.6703 19.8352 39.6703C30.7922 39.6703 39.6703 30.7922 39.6703 19.8352C39.6703 8.87814 30.7922 0 19.8352 0ZM19.8352 38.0206C9.81268 38.0206 1.64975 29.8672 1.64975 19.8352C1.64975 9.81268 9.80315 1.64975 19.8352 1.64975C29.8576 1.64975 38.0206 9.80315 38.0206 19.8352C38.0206 29.8576 29.8576 38.0206 19.8352 38.0206Z" fill="white"/>
<path d="M19.8354 19.8352H10.6807V21.4849H21.4851V7.62891H19.8354V19.8352Z" fill="white"/>
</svg>

<svg width="40" height="40" fill="none" xmlns="http://www.w3.org/2000/svg"><path d="M19.835 0C8.878 0 0 8.878 0 19.835S8.878 39.67 19.835 39.67 39.67 30.792 39.67 19.835 30.792 0 19.835 0Zm0 38.02C9.813 38.02 1.65 29.868 1.65 19.836 1.65 9.813 9.803 1.65 19.835 1.65c10.023 0 18.186 8.153 18.186 18.185 0 10.023-8.163 18.186-18.186 18.186Z" fill="#fff"/><path d="M19.835 19.835h-9.154v1.65h10.804V7.629h-1.65v12.206Z" fill="#fff"/></svg>
